X: 1
T: Colonel Graham's Favourite
M: 6/8
L: 1/8
R: jig
K: Fmaj
|:G | c>dc c>eg | f>dB c2d | e>fg g>fe | d>ed dBG |
c>dc c>eg | f>dB c2d | e>fg a>gf | g>ag g2 :|
g | g>ag e>fg | f>af d>ef | e>ge c>de | d>BG G2B |
c>dc e>ge | f>af d2f | e>cA d>BG | c>dc c2g |
g>ag efg | f>af def | e>ge cde | d>BG G2B |
cec dfd | ege fga | g>fe fed | c>dc c2 ||
